X:1
T:James Gibb editions
T:Come unto me, ye fainting - Barnby
%%score [ ( 1 2 ) ( 3 4 ) ]
L:1/8
Q:1/4=100
M:4/4
K:Eb
V:1 treble nm="Midi_74"
V:2 treble 
V:3 bass nm="Midi_74"
V:4 bass 
V:1
"^Venite ad me (76. 76. D)""^Come unto me, ye fainting""^Joseph Barnby\n(1838-96)" E2 | %1
 D2 E2 F2 E2 | A4 G2 || F2 | E2 c2 B2 A2 | G4 || e4 | d2 c2 B2 =A2 | =A4 B2 || c2 | d2 F2 G2 c2 | %11
 B6 ||[M:4/4] B2 | F2 G2 A2 GF | G4 G2 || B2 | B2 c2 _d3 B | c4 || d4 | e2 c2 B2 A2 | %20
 (G2 B2)"^1" A2 || C2 | E2 B,2 G2 F2 | E6 || A4 G4 |] %25
V:2
 B,2 | B,2 B,2 B,2 B,2 | E4 E2 || D2 | E2 E2 E2 D2 | E4 || G4 | ^F2 F2 D2 D2 | D4 D2 || =E2 | %10
 F2 D2 E2 E2 | D6 ||[M:4/4] D2 | D2 E2 E2 D2 | E4 E2 || E2 | E2 E2 F2 E2 | E4 || F4 | E2 E2 F2 D2 | %20
 E2 _D2 C2 || C2 | B,2 B,2 E2 D2 | E6 || E4 E4 |] %25
V:3
 G,2 | F,2 G,2 A,2 G,2 | C4 B,2 || A,2 | G,2 A,2 F,2 B,2 | B,4 || C4 | =A,2 A,2 D2 C2 | C4 B,2 || %9
 B,2 | B,2 B,2 B,2 =A,2 | B,6 ||[M:4/4] B,2 | B,2 B,2 C2 B,2 | B,4 B,2 || G,2 | G,2 A,2 A,2 G,2 | %17
 C4 || =B,4 |"^1" G,2 A,2 F,2 B,2 | (B,2 E,2) E,2 || A,2 | G,2 G,2 B,2 A,2 | G,6 || C4 B,4 |] %25
V:4
 E,2 | E,2 E,2 E,2 E,2 | E,4 E,2 || B,,2 | C,2 A,,2 B,,2 B,,2 | E,4 || C,4 | D,2 D,2 =E,2 ^F,2 | %8
 G,4 G,2 || G,2 | F,2 F,2 F,2 F,2 | B,6 ||[M:4/4] B,2 | A,2 G,2 F,2 B,,2 | E,4 E,2 || E,2 | %16
 _D,2 C,2 B,,2 E,2 | A,4 || G,4 | C,2 C,2 D,2 B,,2 | E,2- G,,2 A,,2 || A,,2 | B,,2 B,,2 B,,2 B,,2 | %23
 E,6 || A,,4 E,4 |] %25

